X: 1
T: Pat Ward's
M: 12/8
L: 1/8
R: slide
K: Dmaj
FED A2D B2D A2D|F2A A2F E3 E2G|F2D A2D B2D A3|Bcd e2c d2B A2G| 
FED A2D B2D A2D|F2A A2F E3 E2G|F2D A2D B2D A3|1Bcd e2c d3 A2G:|2Bcd e2c d3 d2B||
|:A2d f2d e2d f2d|A2d f2d e3 d2B|A2d f2d e2d e2f|g2f e2d B3 A2F|
A2d f2d e2d f2d|A2d f2d e2d e2f|gfe f2d e2d B2A|1Bcd e2c d3 d2B:|2Bcd e2c d2B A2G|
